docs/.gitbook/assets/icon-eject-16@dark.svg

<svg width="32" height="32" viewBox="0 0 16 16" fill="none" xmlns="http://www.w3.org/2000/svg">
<rect x="0" y="0" width="16" height="16" fill="#181c1f"/>
<path fill-rule="evenodd" clip-rule="evenodd" d="M8.00001 1.75C8.21132 1.75 8.41283 1.83914 8.55497 1.9955L13.555 7.4955C13.7547 7.71516 13.806 8.03193 13.6859 8.30342C13.5658 8.5749 13.2969 8.75 13 8.75L3.00001 8.75C2.70315 8.75 2.43423 8.5749 2.31413 8.30342C2.19403 8.03193 2.24537 7.71516 2.44506 7.4955L7.44506 1.9955C7.5872 1.83914 7.78871 1.75 8.00001 1.75ZM8.00001 3.61496L4.69543 7.25L11.3046 7.25L8.00001 3.61496ZM3.75001 11.75V12.75L12.25 12.75V11.75L3.75001 11.75ZM3.00001 10.25L13 10.25C13.1989 10.25 13.3897 10.329 13.5303 10.4697C13.671 10.6103 13.75 10.8011 13.75 11V13.5C13.75 13.9142 13.4142 14.25 13 14.25L3.00001 14.25C2.8011 14.25 2.61034 14.171 2.46968 14.0303C2.32903 13.8897 2.25001 13.6989 2.25001 13.5L2.25001 11C2.25001 10.5858 2.5858 10.25 3.00001 10.25Z" fill="#fff"/>
</svg>

<svg xmlns="http://www.w3.org/2000/svg" width="32" height="32" fill="none" viewBox="0 0 16 16"><path fill="#181c1f" d="M0 0h16v16H0z"/><path fill="#fff" fill-rule="evenodd" d="M8 1.75a.75.75 0 0 1 .555.246l5 5.5A.75.75 0 0 1 13 8.75H3a.75.75 0 0 1-.555-1.255l5-5.5A.75.75 0 0 1 8 1.75m0 1.865L4.695 7.25h6.61zM3.75 11.75v1h8.5v-1zM3 10.25h10a.75.75 0 0 1 .75.75v2.5a.75.75 0 0 1-.75.75H3a.75.75 0 0 1-.75-.75V11a.75.75 0 0 1 .75-.75" clip-rule="evenodd"/></svg>
